packages/foundations/assets/icons/functional/images/transportation/handcart_20_inverted.svg

<svg width="20" height="20" viewBox="0 0 20 20" fill="none" xmlns="http://www.w3.org/2000/svg">
<g clip-path="url(#clip0_2214_7302)">
<path fill-rule="evenodd" clip-rule="evenodd" d="M4.50076 13.925C5.32918 13.925 6.00076 14.5966 6.00076 15.425C6.00076 16.2534 5.32918 16.925 4.50076 16.925C3.67233 16.925 3.00076 16.2534 3.00076 15.425C3.00076 14.5966 3.67233 13.925 4.50076 13.925ZM11.5008 13.925C12.3292 13.925 13.0008 14.5966 13.0008 15.425C13.0008 16.2534 12.3292 16.925 11.5008 16.925C10.6723 16.925 10.0008 16.2534 10.0008 15.425C10.0008 14.5966 10.6723 13.925 11.5008 13.925ZM8.50076 14.575C8.9702 14.575 9.35076 14.9556 9.35076 15.425C9.35076 15.8583 9.02427 16.275 8.50076 16.275C8.27118 16.275 7.93785 16.275 7.50076 16.275C7.03131 16.275 6.65076 15.8945 6.65076 15.425C6.65076 14.9917 6.99053 14.575 7.50076 14.575H8.50076ZM14.0373 3.07501C15.4045 3.07501 16.5698 4.04376 16.8326 5.3688L17.8491 12.8689C17.8491 13.2561 17.693 13.5283 17.3809 13.6853C17.0687 13.8423 16.402 14.1756 15.3809 14.6853C14.961 14.8952 14.4504 14.725 14.2405 14.3051C14.0467 13.9176 14.1592 13.3895 14.6206 13.1647L16.0768 12.436L15.177 5.77111C15.1054 5.24139 14.6206 4.78142 14.1592 4.78142C13.5347 4.78142 13.1662 4.39445 13.1662 3.92501C13.1662 3.49168 13.5068 3.07501 14.0373 3.07501ZM13.0008 7.92501C13.4702 7.92501 13.8508 8.30557 13.8508 8.77501C13.8508 9.20834 13.566 9.62501 13.0008 9.62501V11.425C12.9852 12.4682 12.6209 12.9141 11.5465 12.925H4.52531C3.78145 12.9175 3.00076 12.6322 3.00076 11.425V9.62501C2.47755 9.62501 2.15076 9.24445 2.15076 8.77501C2.15076 8.34168 2.49102 7.92501 3.00076 7.92501C9.35446 7.92501 12.6878 7.92501 13.0008 7.92501Z" fill="#1A1C1F"/>
</g>
<defs>
<clipPath id="clip0_2214_7302">
<rect width="20" height="20" fill="white"/>
</clipPath>
</defs>
</svg>

<svg xmlns="http://www.w3.org/2000/svg" width="20" height="20" fill="none"><g clip-path="url(#a)"><path fill="#1A1C1F" fill-rule="evenodd" d="M4.5 13.925a1.5 1.5 0 1 1 0 3 1.5 1.5 0 0 1 0-3m7 0a1.5 1.5 0 1 1 0 3 1.5 1.5 0 0 1 0-3m-3 .65c.47 0 .85.38.85.85 0 .433-.326.85-.85.85h-1a.85.85 0 1 1 0-1.7zm5.537-11.5a2.85 2.85 0 0 1 2.796 2.294l1.016 7.5q0 .581-.468.816l-2 1a.85.85 0 0 1-1.14-.38.84.84 0 0 1 .38-1.14l1.456-.729-.9-6.665c-.072-.53-.556-.99-1.018-.99-.624 0-.993-.387-.993-.856 0-.433.34-.85.871-.85m-1.036 4.85c.47 0 .85.38.85.85 0 .433-.285.85-.85.85v1.8c-.016 1.043-.38 1.49-1.454 1.5H4.525c-.744-.008-1.524-.293-1.524-1.5v-1.8c-.523 0-.85-.38-.85-.85 0-.433.34-.85.85-.85z" clip-rule="evenodd"/></g><defs><clipPath id="a"><path fill="#fff" d="M0 0h20v20H0z"/></clipPath></defs></svg>
